static/fa/svgs/solid/map-pin.svg

<svg xmlns="http://www.w3.org/2000/svg" viewBox="0 0 320 512"><!--! Font Awesome Free 6.1.1 by @fontawesome - https://fontawesome.com License - https://fontawesome.com/license/free (Icons: CC BY 4.0, Fonts: SIL OFL 1.1, Code: MIT License) Copyright 2022 Fonticons, Inc.--><path d="M320 144c0 79.5-64.5 144-144 144-79.53 0-144-64.5-144-144C32 64.47 96.47 0 176 0c79.5 0 144 64.47 144 144zM192 64c0-8.84-7.2-16-16-16-53.9 0-96 42.98-96 96 0 8.8 7.16 16 16 16 8.8 0 16-7.2 16-16 0-35.3 28.7-64 64-64 8.8 0 16-7.16 16-16zm-48 416V317.1c10.4 1.9 21.1 2 32 2 10.9 0 21.6-.1 32-2V480c0 17.7-14.3 32-32 32s-32-14.3-32-32z"/></svg>

<svg xmlns="http://www.w3.org/2000/svg" viewBox="0 0 320 512"><!--! Font Awesome Free 6.1.1 by @fontawesome - https://fontawesome.com License - https://fontawesome.com/license/free (Icons: CC BY 4.0, Fonts: SIL OFL 1.1, Code: MIT License) Copyright 2022 Fonticons, Inc. --><path d="M320 144C320 223.5 255.5 288 176 288C96.47 288 32 223.5 32 144C32 64.47 96.47 0 176 0C255.5 0 320 64.47 320 144zM192 64C192 55.16 184.8 48 176 48C122.1 48 80 90.98 80 144C80 152.8 87.16 160 96 160C104.8 160 112 152.8 112 144C112 108.7 140.7 80 176 80C184.8 80 192 72.84 192 64zM144 480V317.1C154.4 319 165.1 319.1 176 319.1C186.9 319.1 197.6 319 208 317.1V480C208 497.7 193.7 512 176 512C158.3 512 144 497.7 144 480z"/></svg>
